X:1
T:Title
%%score { ( 1 3 ) | ( 2 4 ) }
L:1/8
Q:1/4=94
M:4/4
K:G
V:1 treble nm="Grand Piano"
V:3 treble 
V:2 treble 
V:4 treble 
V:1
 d>d (3ddd d2 B>B | [FA]2 [GB]>A G2 D2 | G>F (3GGA B2 [DGd]>[DGB] | [DFA]2 [CGA]>[CGB] [DFA]4 | %4
w: Howard~E.~Smith * * * * * * *||||
 d>d (3ddd d2 B>B | [FA]2 [GB]>A G2 D2 | %6
w: ||
[M:35/32] G>FG/GA/ B2 [DGd]-(3:2:4[DGd]3/2-[DGd]/4[EAc]3/4-[EAc]/8 | %7
w: |
[M:4/4] [GB]2- [GB]/4 z/4 z/ z z4 | (7:8:6[Fc]-[Fc]/4[Fc]/ [Fc]/[Fc]3/4[Fc]/ z2 (3:2:2[FA]2 [FA] | %9
w: ||
 B2- B/4 z/4 z/ z z4 | z4 [Ge]2- [Ge]/4 z/4 z/ z | (7:8:5d3/2d3/2^c/ d/- d3 | %12
w: |||
 (5:4:5[Bd]2 [_B^c]/ [=Bd]/-[Bd]3/2[A=c]/ z2 [Bd]2 | %13
w: |
 (5:4:5[Ac]2 [^GB]/ [Ac]/-[Ac]3/2[=GB]/ z2 [Ac]2 | %14
w: |
[M:35/32] (9:8:15G3/2-G/8-G/64F/-F3/64G/-G3/64G-G3/32A/-A3/64 B2- B3/16 [DGd]2- [DGd]/- z3/64 (9:8:4[DGd]3/16-[DGd]3/64[EAc]/-[EAc]3/64 | %15
w: |
[M:4/4] [DGB]2 [DGB]>[CFA] [B,G]4 |] %16
w: |
V:2
 [G,B,G]>[G,B,G] (3[G,B,G][G,B,G][G,B,G] [G,B,G]2 [G,DG]>[G,DG] | %1
 [D,D]2 [D,D]>[D,CD] [G,B,D]2 [G,B,]2 | %2
 [G,B,D]>[G,A,D] (3[G,B,D][G,B,D][G,CD] [G,DG]2[K:bass] B,,>G,, | A,,2 A,,>A,, D,4 | %4
 [G,B,G]>[G,B,G] (3[G,B,G][G,B,G][G,B,G] [G,B,G]2 [G,DG]>[G,DG] | %5
 [D,D]2 [D,D]>[D,CD] [G,B,D]2 [G,B,]2 | %6
[M:35/32][K:treble] [G,B,D]>[G,A,D][G,B,D]/[G,B,D][G,CD]/ [G,DG]2[K:bass] B,,-(3:2:4B,,3/2-B,,/4C,3/4-C,/8 | %7
[M:4/4] (7:8:5D,3/2D,3/2D,/ G,,/- G,,3 | %8
 (7:8:6[D,A,]-[D,A,]/4[D,A,]/ [D,A,]/[D,A,]3/4[D,A,]/ z2 (3:2:2[D,D]2 [D,D] | %9
 D2- D/4 z/4 z/ z z4[K:bass] | %10
 (7:8:6[C,C]-[C,C]/4[C,C]/ [C,C]/[C,C]3/4[C,C]/ z2 (3:2:2[E,C]2 [E,C] | %11
 [B,G]2- [B,G]/4 z/4 z/ z z4 | (5:4:5[A,D]2 [G,D]/ [G,D]/-[G,D]3/2[G,D]/ z2 [G,D]2 | %13
 (5:4:5[D,D]2 [D,D]/ [D,D]/-[D,D]3/2[D,D]/ z2 [D,D]2 | %14
[M:35/32][K:treble] (9:8:15[G,B,D]3/2-[G,B,D]/8-[G,B,D]/64[G,A,D]/-[G,A,D]3/64[G,B,D]/-[G,B,D]3/64[G,B,D]-[G,B,D]3/32[G,CD]/-[G,CD]3/64 [G,DG]2- [G,DG]3/16[K:bass] B,,2- B,,/- z3/64 (9:8:4B,,3/16-B,,3/64C,/-C,3/64 | %15
[M:4/4] D,2 D,>D, G,,4 |] %16
V:3
 x8 | x8 | x8 | x8 | x8 | x8 |[M:35/32] x35/4 |[M:4/4] (7:8:5D3/2[DGB]3/2[CFA]/ [B,G]/- [B,G]3 | %8
 z4 [Fc]2- [Fc]/4 z/4 z/ z | (7:8:5G3/2[GB]3/2.[Ac]/ [Bd]3/2 [GB]2 | %10
 (7:8:6[Ge]-[Ge]/4[Ge]/ [Ge]/[Ge]3/4[Ge]/ z2 (3:2:2[Gc]2 [Gc] | x8 | z4 (3:2:2[GB]2 [Ac] z2 | %13
 z4 (3:2:2[FA]2 [GB] z2 |[M:35/32] x71/8 |[M:4/4] x8 |] %16
V:4
 x8 | x8 | x6[K:bass] x2 | x8 | x8 | x8 |[M:35/32][K:treble] x6[K:bass] x11/4 |[M:4/4] x8 | %8
 z4 [D,A,]2- [D,A,]/4 z/4 z/ z | (7:8:5G,3/2[G,D]3/2.[G,D]/ [G,D]3/2 [G,D]2[K:bass] | %10
 z4 [C,C]2- [C,C]/4 z/4 z/ z | (7:8:5G,3/2[G,B,G]3/2[G,_B,G]/ [G,=B,G]/- [G,B,G]3 | %12
 z4 (3:2:2[G,D]2 [G,D] z2 | z4 (3:2:2[D,D]2 [D,D] z2 |[M:35/32][K:treble] x187/32[K:bass] x119/40 | %15
[M:4/4] x8 |] %16

